!!!!SEGMENT: d-b--slg-bohn-ms-mus-111--006_jarzebski-adam--canzoni-e-concerti-6-cantate-domino-prima-pars.krn
!!!cenid: 16xx:1779
!!!COM: Jarzębski, Adam
!!!COM-rismID: pe30017782
!!!CDT:
!!!CNT:
!!!GTL: Canzoni e Concerti
!!!OTL: 6. Cantate Domino – Prima Pars
!!!OMV: 006
!!!PDT: 1627
!!!AGN:
!!!SMS-siglum: D-B
!!!SMS-shelfmark: Slg Bohn Ms.mus. 111
!!!SMS-shelfwork: 002-006 G
!!!SMS-variant:
!!!SMS-altvar:
!!!NIFC-rismSourceID: 1001062014
!!!NIFC-rismChildID: 1001062014
!!!NIFC-islandoraID: none
!!!URL-pdf-islandora:
!!!URL-scan: https://digital.staatsbibliothek-berlin.de/werkansicht/?PPN=PPN1049147219 @EN{Scan on Staatsbibliothek zu Berlin Website} @PL{Skany w portalu Staatsbibliothek zu Berlin}
!!!IIIF:
!!!ONB-nifc: UWAGA: Prima vox: s. 10-11, Seconda vox: s. 70-71, Basso continuo: s. 168. Uwaga: proszę wpisywać partie tylko występujące w danym koncercie i nazywać partie wg określeń podawanych przy danym utworze. Kody instr. dla humdrumowców podane zostaną na forum.
!!!AIN: 1 violb
!!!key: d
**kern	**kern	**kern	**dynam
*part3	*part2	*part1	*part1
*staff3	*staff2	*staff1	*
*I"Baſso Continúo	*I"Tenore. Bastarda.	*I"Sopr:	*
*mI"Basso continuo	*mI"Bastarda	*mI"Soprano	*
*I'bc	*I'vla bastarda	*I'[V 1]	*
*	*Iviolb	*	*
*ICklav	*ICstr	*	*
*IGcont	*	*	*
*clefC4	*clefC4	*clefG2	*
*mclefF4	*mclefF4	*	*
*k[b-]	*k[b-]	*k[b-]	*
*d:	*d:	*d:	*
*M2/2	*M2/2	*M2/2	*
*met(C|)	*met(C|)	*met(C|)	*
*mmet(c|)	*mmet(c|)	*mmet(c|)	*
=1-	=1-	=1-	=1-
!!LO:TX:t=P:problem=4,8,16,32\right or middle
2d\	1r	2dd\	.
4d\	.	4dd\	.
4d\	.	4dd\	.
=2-	=2-	=2-	=2-
4g\	4r	2.gg\	.
4G/	4G/	.	.
4G/	4G/	.	.
!LO:TX:t=P:problem=kreska pseudotaktowa	!	!	!
4G/	4G/	4gg\	.
=3-	=3-	=3-	=3-
2.d\	4d\	4ff\	.
.	8B-\L	8dd\L	.
.	8c\J	8ee\J	.
.	4d\	4ff\	.
!	!LO:TX:t=P:problem=kreska pseudotaktowa	!	!
4e\	4e\	4gg\	.
=4-	=4-	=4-	=4-
2D/	4f\	2aa\	.
!	!LO:MO:mod=*null:null	!	!
*	*clefF4	*	*
.	4D/	.	.
4D/	4D/	2aa\	.
!LO:TX:t=P:problem=kreska pseudotaktowa	!	!	!
4D/	4D/	.	.
=5-	=5-	=5-	=5-
2.G/	4GG/	4gg\	.
!	!LO:MO:mod=*null:null	!	!
*	*clefC4	*	*
.	8G/L	8b-\L	.
!	!	!LO:SIC:s=8ccJ	!
.	8A/J	8cc\	.
!	!	!LO:SIC:s=8ddL	!
.	8B-\L	8dd\	.
.	8c\	8ee\	.
4G/	8d\	8ff\	.
!	!LO:TX:t=P:problem=kreska pseudotaktowa	!LO:TX:t=P:problem=kreska pseudotaktowa oznaczona jako przecinek	!
.	8e\J	8gg\J	.
=6-	=6-	=6-	=6-
4F/	4.f\	4.aa\	.
4D/	.	.	.
.	8d\	8ff\	.
4F/	4f\	4aa\	.
!LO:TX:t=P:problem=kreska pseudotaktowa	!	!	!
4G/	8e\L	8gg\L	.
.	8d\J	8ff\J	.
=7-	=7-	=7-	=7-
1A	4c#X\	4ee\	.
.	2d\	4ff\	.
.	.	2ee\	.
!	!LO:TX:a:t=P:problem=# above	!	!
.	4c#X\	.	.
*	*custos:d	*	*
!	!LO:LB:g=original	!	!
=8-	=8-	=8-	=8-
2D/	4d\	1dd	.
!	!LO:MO:mod=*null:null	!	!
*	*clefF4	*	*
.	4D/	.	.
4D/	4D/	.	.
!LO:TX:t=P:problem=kreska pseudotaktowa	!LO:TX:t=P:problem=kreska pseudotaktowa	!	!
4D/	4D/	.	.
!LO:MO:mod=*null:null	!	!	!
*clefF4	*	*	*
*custos:G	*	*	*
!LO:LB:g=original	!	!	!
=9-	=9-	=9-	=9-
4G\	2G\	8r	.
.	.	8dd\L	.
4GG/	.	8dd\	.
.	.	8dd\J	.
4GG/	8r	4.gg\	.
.	8GG/L	.	.
4GG/	8GG/	.	.
.	8GG/J	8gg\	.
=10-	=10-	=10-	=10-
!	!LO:TX:t=P:problem=mixed beam	!	!
2.D/	8DD/L	8ff\L	.
.	8D\	16dd\L	.
!	!	!LO:SIC:s=16eeJ	!
.	.	16ee\JJ	.
!	!	!LO:SIC:s=8ff	!
.	8D\	8ff\L	.
!	!	!LO:SIC:s=8ggJ	!
.	8E\J	8gg\J	.
*	*	*custos:aa	*
!	!	!LO:LB:g=original	!
!	!LO:SIC:s=8FL	!LO:TX:t=P:problem=mixed beam	!
.	8F\	8aa\L	.
!	!LO:MO:mod=*null:null	!	!
*	*clefC4	*	*
!	!LO:SIC:s=16B-L	!	!
.	16B-\LL	16d/L	.
!	!	!LO:SIC:s=16eJ	!
.	16cny\J	16e/JJ	.
!LO:TX:t=P:problem=kreska pseudotaktowa	!	!LO:SIC:s=8f	!
4E\	8d\	8f/L	.
!	!LO:TX:t=P:problem=kreska pseudotaktowa	!LO:TX:t=P:problem=kreska pseudotaktowa	!
.	8e\J	8g/J	.
=11-	=11-	=11-	=11-
!	!	!LO:TX:t=P:problem=mixed beam	!
4F\	8f\L	16a/LL	.
.	.	16dd\	.
.	8D/	16dd\	.
.	.	16ee\	.
4D/	8D/	16ff\	.
.	.	16dd\	.
.	8D/J	16ff\	.
.	.	16gg\JJ	.
!	!	!LO:TX:t=P:problem=kreska pseudotaktowa	!
4F\	16F/LL	2aa\	.
.	16A/	.	.
.	16A/	.	.
!	!LO:SIC:s=16	!	!
.	16B-/JJ	.	.
!	!LO:SIC:s=16c	!	!
4F\	16c\LL	.	.
.	16A\	.	.
.	16c\	.	.
!	!LO:TX:t=P:problem=kreska pseudotaktowa	!	!
.	16d\JJ	.	.
=12-	=12-	=12-	=12-
!LO:TX:t=P:problem=kreska pseudotaktowa	!	!	!
1E	8e\L	2r	.
.	16d\L	.	.
.	16c\	.	.
!	!LO:TX:a:t=P:problem=# above	!	!
!	!LO:N:acc=#	!	!
.	16Bn\	.	.
.	16A\	.	.
.	16G\	.	.
.	16F\JJ	.	.
!	!LO:MO:mod=*null:null	!	!
*	*clefF4	*	*
*	*custos:E	*	*
!	!LO:LB:g=original	!	!
.	16E/LL	[2gg\	.
.	16D/	.	.
.	16C/	.	.
!	!LO:TX:t=P:problem=# below	!	!
!	!LO:N:acc=#	!	!
.	16BBn/	.	.
.	16AA/	.	.
.	16GG/	.	.
.	16FF/	.	.
!	!LO:TX:t=P:problem=kreska pseudotaktowa	!	!
.	16EE/JJ	.	.
=13-	=13-	=13-	=13-
1D	2DD/	8gg\L]	.
!	!	!LO:SIC:s=16b-L	!
.	.	16b-\	.
.	.	16cc\	.
.	.	16dd\	.
.	.	16ee\	.
.	.	16ff\	.
.	.	16gg\JJ	.
.	2r	8aa\L	.
.	.	16ee\L	.
.	.	16ff#X\JJ	.
.	.	32gg\LLL	.
!	!	!LO:TX:a:t=P:problem=# above	!
.	.	32ff#X\	.
.	.	32gg\	.
!	!	!LO:TX:a:t=P:problem=# above	!
.	.	32ff#X\	.
.	.	32gg\	.
!	!	!LO:TX:a:t=P:problem=# above	!
.	.	32ff#X\	.
.	.	32ee\	.
!	!	!LO:TX:a:t=P:problem=# above	!
.	.	32ff#X\JJJ	.
=14-	=14-	=14-	=14-
2GG/	2r	1gg	.
!LO:TX:t=P:problem=kreska pseudotaktowa	!LO:TX:t=P:problem=kreska pseudotaktowa	!	!
2G\	2G\	.	.
=15-	=15-	=15-	=15-
2G\	8G\L	1r	.
.	16D\L	.	.
.	16E\J	.	.
.	8F#X\	.	.
.	8G\J	.	.
2F#X\	16A\LL	.	.
!	!LO:SIC:s=16G	!	!
.	16G\JJ	.	.
!	!LO:SIC:s=32EL	!	!
.	32E\LLL	.	.
!	!LO:TX:a:t=P:problem=# above	!	!
.	32F#X\	.	.
.	32G\	.	.
.	32F#X\JJJ	.	.
.	32G\LLL	.	.
!	!LO:TX:a:t=P:problem=# above	!	!
.	32F#X\	.	.
.	32G\	.	.
!	!LO:TX:a:t=P:problem=# above	!	!
.	32F#X\	.	.
.	32G\	.	.
!	!LO:TX:a:t=P:problem=# above	!	!
.	32F#X\	.	.
.	32E\	.	.
!	!LO:TX:a:t=P:problem=# above	!	!
!	!LO:TX:t=P:problem=kreska pseudotaktowa	!	!
.	32F#X\JJJ	.	.
=16-	=16-	=16-	=16-
2G\	2G\	8r	.
.	.	16gg\LL	.
.	.	16aa\J	.
.	.	8bb-\	.
.	.	8aa\J	.
!LO:TX:t=P:problem=kreska pseudotaktowa	!	!LO:TX:t=P:problem=kreska pseudotaktowa	!
2GG/	8r	2gg\	.
.	16G\LL	.	.
!	!LO:SIC:s=16AJ	!	!
.	16A\JJ	.	.
!	!LO:SIC:s=8B-	!	!
.	8B-y\L	.	.
!	!LO:TX:t=P:problem=kreska pseudotaktowa	!	!
.	8G\J	.	.
=17-	=17-	=17-	=17-
2.D/	2d\	8r	.
.	.	16ffny\LL	.
.	.	16gg\J	.
.	.	8aa\	.
.	.	8gg\J	.
*	*custos:D	*custos:ff	*
!	!LO:LB:g=original	!LO:LB:g=original	!
.	8r	2ff\	.
.	16D\LL	.	.
.	16E\J	.	.
4C/	8Fny\	.	.
!	!LO:TX:t=P:problem=kreska pseudotaktowa	!	!
.	8E\J	.	.
=18-	=18-	=18-	=18-
2.BB-/	8D/L	8r	.
.	16BB-y/L	16dd\LL	.
!	!LO:SIC:s=16CJ	!LO:TX:a:t=P:problem=♭ above	!
.	16C/JJ	16ee-X\J	.
!	!LO:SIC:s=8D	!	!
.	8D/L	8ff\	.
!	!	!LO:TX:a:t=P:problem=♭ above	!
.	8C/J	8ee-X\J	.
.	8BB-/L	8dd\L	.
.	16GG/L	16b-\L	.
!	!LO:SIC:s=16AAJ	!	!
.	16AA/JJ	16cc\J	.
!LO:TX:t=P:problem=kreska pseudotaktowa	!LO:SIC:s=8BB-	!	!
4GG/	8BB-/L	8dd\	.
!	!LO:TX:t=P:problem=kreska pseudotaktowa	!LO:TX:t=P:problem=kreska pseudotaktowa	!
.	8GG/J	8b-\J	.
=19-	=19-	=19-	=19-
!	!	!LO:TX:t=P:problem=mixed beam	!
1D	2D/	16a/LL	.
.	.	16ff\	.
.	.	16ff\	.
.	.	16gg\JJ	.
.	.	8aa\L	.
.	.	8gg\J	.
!	!	!LO:TX:t=P:problem=kreska pseudotaktowa	!
!	!LO:N:vis=4	!LO:TX:a:t=P:problem=# above	!
.	16r	2ff#X\	.
.	16D\LL	.	.
.	16D\	.	.
.	16E\JJ	.	.
.	8F\L	.	.
!	!LO:TX:t=P:problem=kreska pseudotaktowa	!	!
.	8D\J	.	.
*custos:GG	*	*	*
!LO:LB:g=original	!	!	!
=20-	=20-	=20-	=20-
!	!	!LO:N:vis=8	!
2GG/	16G\LL	16r	.
.	16B-\	16gg\LL	.
.	16B-\	16gg\	.
.	16cny\JJ	16aa\JJ	.
.	8.d\L	8.bb-\L	.
.	16c\Jk	16aa\Jk	.
!LO:TX:t=P:problem=kreska pseudotaktowa	!	!	!
2G\	8B-\L	8gg\L	.
.	8A\	8ffny\	.
.	8G\	8eeny\	.
!	!LO:TX:t=P:problem=kreska pseudotaktowa	!LO:TX:t=P:problem=kreska pseudotaktowa	!
.	8F\J	8dd\J	.
=21-	=21-	=21-	=21-
!	!LO:SIC:s=8EL	!	!
1A	8E\	8cc#X\L	.
!	!LO:MO:mod=*null:null	!	!
*	*clefC4	*	*
!	!LO:SIC:s=16c#L	!	!
.	16c#X\LL	16a\L	.
!	!	!LO:SIC:v:s=16bJJ	!
.	16d\JJ	16b-\JJ	.
*	*custos:e	*	*
!	!LO:LB:g=original	!	!
!	!	!LO:TX:a:t=P:problem=# above	!
.	8e\L	8cc#X\L	.
.	8f\	8dd\	.
!	!LO:SIC:s=8eJ	!	!
.	8e\J	8ee\	.
.	4d\	8ff\J	.
.	.	4ee\	.
!	!LO:TX:t=P:problem=kreska pseudotaktowa	!	!
.	8c#X\	.	.
=22-	=22-	=22-	=22-
2D/	4d\	1dd	.
!	!LO:MO:mod=*null:null	!	!
*	*clefF4	*	*
.	4D/	.	.
4D/	4D/	.	.
!LO:TX:t=P:problem=kreska pseudotaktowa	!LO:TX:t=P:problem=kreska pseudotaktowa	!	!
4D/	4D/	.	.
=23-	=23-	=23-	=23-
2Fny\	8F\L	1r	.
.	16A\L	.	.
.	16G\JJ	.	.
.	8F\L	.	.
.	16G\L	.	.
.	16F\JJ	.	.
4E\	8E\L	.	.
.	16G\L	.	.
.	16F\JJ	.	.
4E\	8E\L	.	.
.	16F\L	.	.
!	!LO:TX:t=P:problem=kreska pseudotaktowa	!	!
.	16E\JJ	.	.
=24-	=24-	=24-	=24-
2D/	2D/	4r	.
.	.	4dd\	.
!LO:TX:t=P:problem=kreska pseudotaktowa, między nutą a kropką	!	!	!
2.D/	4r	4dd\	.
!	!LO:TX:t=P:problem=kreska pseudotaktowa	!LO:TX:t=P:problem=kreska pseudotaktowa	!
.	4D/	4dd\	.
*	*	*custos:ff	*
!	!	!LO:LB:g=original	!
=25-	=25-	=25-	=25-
.	4D/	8ff\L	.
.	.	16aa\L	.
.	.	16gg\JJ	.
4D/	4D/	8ff\L	.
.	.	16gg\L	.
.	.	16ff\JJ	.
!	!	!LO:TX:a:t=P:problem=♭ above	!
2C/	8C/L	8ee-X\L	.
.	16E-X/L	16gg\L	.
.	16D/JJ	16ff\JJ	.
!	!	!LO:TX:a:t=P:problem=♭ above	!
.	8C/L	8ee-X\L	.
.	16D/L	16ff\L	.
!	!LO:TX:t=P:problem=kreska pseudotaktowa	!LO:TX:t=P:problem=kreska pseudotaktowa	!
.	16C/JJ	16ee-\JJ	.
=26-	=26-	=26-	=26-
!LO:TX:t=P:problem=kreska pseudotaktowa	!LO:TX:t=P:problem=mixed beam	!	!
1BB-	8BB-/L	4.dd\	.
.	8B-\	.	.
.	8B-\	.	.
.	8B-\J	8dd\	.
*	*custos:B	*	*
!	!LO:LB:g=original	!	!
.	8B-\L	8dd\L	.
.	16d\L	16ff\L	.
!	!	!LO:TX:a:t=P:problem=♭ above	!
.	16cny\JJ	16ee-X\JJ	.
.	8B-\L	8dd\L	.
!	!	!LO:TX:a:t=P:problem=♭ above	!
.	16c\L	16ee-X\L	.
!	!LO:TX:t=P:problem=kreska pseudotaktowa	!	!
.	16B-\JJ	16dd\JJ	.
=27-	=27-	=27-	=27-
2AA/	8A\L	2ccny\	.
.	8AA/	.	.
.	8AA/	.	.
.	8AA/J	.	.
2AA/	16A\LL	8r	.
.	16B-\	.	.
!	!	!LO:SIC:s=8cc	!
.	16c\	8cc\L	.
.	16B-\JJ	.	.
!	!	!LO:SIC:s=8.ccL	!
.	8c\L	8.cc\	.
.	16B-\L	.	.
!	!LO:TX:t=P:problem=kreska pseudotaktowa	!LO:TX:t=P:problem=kreska pseudotaktowa	!
.	16A\JJ	16cc\Jk	.
=28-	=28-	=28-	=28-
2GG/	16G\LL	16b-\LL	.
.	16A\	16cc\	.
.	16B-\	16dd\	.
.	16A\JJ	16cc\JJ	.
.	8B-\L	8dd\L	.
.	16A\L	16cc\L	.
.	16G\JJ	16b-\JJ	.
!LO:TX:t=P:problem=kreska pseudotaktowa	!LO:TX:a:t=P:problem=# above	!	!
2FF#X/	16F#X\LL	16a/LL	.
.	16G\	16b-/	.
.	16A\	16cc/	.
.	16G\JJ	16b-/JJ	.
.	8A\L	8cc/L	.
.	16G\L	16b-/L	.
!	!LO:TX:t=P:problem=kreska pseudotaktowa	!	!
!	!LO:TX:a:t=P:problem=# above	!LO:TX:t=P:problem=kreska pseudotaktowa	!
.	16F#X\JJ	16a/JJ	.
*	*	*custos:b	*
!	!	!LO:LB:g=original	!
=29-	=29-	=29-	=29-
!	!	!LO:TX:t=P:problem=mixed beam	!
1GG	16G\LL	8b-/L	.
.	16A\	.	.
.	16B-\	8gg\	.
.	16A\JJ	.	.
.	8B-\L	8gg\	.
.	16A\L	8gg\J	.
.	16G\JJ	.	.
.	16B-\LL	16gg\LL	.
.	16c\	16aa\	.
.	16d\	16bb-\	.
.	16c\JJ	16aa\JJ	.
.	8d\L	8bb-\L	.
.	16c\L	16aa\L	.
!	!LO:TX:t=P:problem=kreska pseudotaktowa	!LO:TX:t=P:problem=kreska pseudotaktowa	!
.	16B-\JJ	16gg\JJ	.
*custos:DD	*custos:A	*	*
!LO:LB:g=original	!LO:LB:g=original	!	!
=30-	=30-	=30-	=30-
2DD/	16A\LL	16ff\LL	.
.	16G\	16gg\	.
.	16Fny\	16aa\	.
.	16Eny\JJ	16gg\JJ	.
.	8F\L	8aa\L	.
.	16G\L	16gg\L	.
.	16A\JJ	16ff\JJ	.
!LO:TX:t=P:problem=kreska pseudotaktowa	!	!	!
2D/	8.B-\L	8.gg\L	.
.	16A\Jk	16ff\Jk	.
.	8.G\L	8.eeny\L	.
.	16F\Jk	16dd\Jk	.
=31-	=31-	=31-	=31-
2.A\	16E\LL	16cc#X\LL	.
.	16F\	16dd\	.
.	16G\	16ee\	.
.	16F\JJ	16dd\JJ	.
.	8.G\L	8.ee\L	.
.	16F\Jk	16dd\Jk	.
!	!LO:TX:t=P:problem=mixed beam	!	!
.	8E\L	8cc#X\L	.
.	8D\	8dd\J	.
4A\	8A\	4ee\	.
!	!LO:TX:t=P:problem=kreska pseudotaktowa	!	!
.	8AA/J	.	.
=32-	=32-	=32-	=32-
2D/	4DD/	1dd	.
.	4D/	.	.
4D/	4D/	.	.
!LO:TX:t=P:problem=kreska pseudotaktowa	!LO:TX:t=P:problem=kreska pseudotaktowa	!	!
4D/	4D/	.	.
=33-	=33-	=33-	=33-
2D/	8.D/L	4r	.
!	!LO:TX:b:t=P:problem=♭ below	!	!
.	16E-X/Jk	.	.
.	8.D/L	4dd\	.
.	16C/Jk	.	.
4BB-/	8BB-/L	4dd\	.
.	16C/L	.	.
.	16BB-/JJ	.	.
4BB-/	8.AA/L	4dd\	.
!	!LO:TX:t=P:problem=kreska pseudotaktowa	!	!
.	16GG/Jk	.	.
=34-	=34-	=34-	=34-
!LO:TX:t=P:problem=kreska pseudotaktowa	!	!	!
1F	2FF/	8.aa\L	.
.	.	16bb-\Jk	.
.	.	8.aa\L	.
.	.	16gg\Jk	.
*	*	*custos:ff	*
!	!	!LO:LB:g=original	!
.	2r	8ff\L	.
.	.	16gg\L	.
.	.	16ff\JJ	.
.	.	8.ee\L	.
!	!	!LO:TX:t=P:problem=kreska pseudotaktowa	!
.	.	16dd\Jk	.
=35-	=35-	=35-	=35-
1FFny	16F\LL	4ccny\	.
.	16G\	.	.
.	16A\	.	.
!	!LO:SIC:s=16B-	!	!
.	16B-\JJ	.	.
!	!LO:SIC:s=16c	!	!
.	16c\LL	4r	.
.	16d\J	.	.
.	8c\J	.	.
!	!LO:TX:t=P:problem=kreska pseudotaktowa	!	!
.	2r	16f/LL	.
.	.	16g/	.
.	.	16a/	.
.	.	16b-/J	.
.	.	8dd/	.
!	!	!LO:TX:t=P:problem=kreska pseudotaktowa	!
.	.	8cc/J	.
*	*custos:BB	*	*
!	!LO:LB:g=original	!	!
=36-	=36-	=36-	=36-
2.BB-/	16BB-/LL	2r	.
.	16C/	.	.
.	16D/	.	.
!	!LO:SIC:s=16E-	!	!
!	!LO:TX:b:t=P:problem=♭ below	!	!
.	16E-X/JJ	.	.
!	!LO:SIC:s=16F	!	!
.	16F\LL	.	.
.	16G\J	.	.
.	8F\J	.	.
.	2r	16b-\LL	.
.	.	16cc\	.
.	.	16dd\	.
!	!	!LO:SIC:v:s=16ee-	!
.	.	16ee\	.
!LO:TX:t=P:problem=kreska pseudotaktowa	!	!	!
4AA/	.	16ff\	.
.	.	16gg\J	.
.	.	8ff\J	.
!	!LO:MO:mod=*null:null	!	!
*	*clefC4	*	*
=37-	=37-	=37-	=37-
1.GG	16G/LL	2r	.
.	16A/	.	.
.	16B-/	.	.
!	!LO:SIC:s=16c	!	!
.	16c/JJ	.	.
!	!LO:SIC:s=16d	!	!
.	16d\LL	.	.
!	!LO:TX:a:t=P:problem=♭ above	!	!
.	16e-X\J	.	.
.	8d\J	.	.
!	!LO:TX:t=P:problem=kreska pseudotaktowa	!	!
.	2r	16g/LL	.
.	.	16a/	.
.	.	16b-/	.
.	.	16cc/	.
.	.	16dd/	.
!	!	!LO:SIC:s=16ee-J	!
.	.	16ee-X/JJ	.
!	!	!LO:SIC:s=8ddJ	!
!	!	!LO:TX:t=P:problem=kreska pseudotaktowa	!
.	.	8dd\	.
=38-	=38-	=38-	=38-
.	16G/LL	2r	.
.	16A/	.	.
.	16B-/	.	.
!	!LO:SIC:s=16c	!	!
.	16c/JJ	.	.
!	!LO:SIC:s=16d	!	!
.	16d\LL	.	.
.	16e-X\J	.	.
.	8d\J	.	.
!	!LO:MO:mod=*null:null	!	!
*	*clefF4	*	*
!LO:TX:t=P:problem=kreska pseudotaktowa	!	!	!
2D/	2D/	16dd\LL	.
.	.	16eeny\	.
!	!	!LO:TX:a:t=P:problem=# above	!
.	.	16ff#X\	.
.	.	16gg\	.
.	.	16aa\	.
!	!	!LO:SIC:s=16bb-J	!
.	.	16bb-\JJ	.
!	!	!LO:SIC:s=8aaJ	!
!	!	!LO:TX:t=P:problem=kreska pseudotaktowa	!
.	.	8aa\	.
=39-	=39-	=39-	=39-
1GG	16GG/LL	4gg\	.
.	16AA/	.	.
.	16BB-/	.	.
.	16C/	.	.
.	16D/	4r	.
.	16E-X/J	.	.
.	8D/J	.	.
.	2r	16g/LL	.
.	.	16a/	.
.	.	16b-/	.
.	.	16cc/	.
.	.	16dd/	.
!	!	!LO:SIC:s=16ee-J	!
.	.	16ee-X/JJ	.
!	!	!LO:SIC:s=8ddJ	!
!	!	!LO:TX:t=P:problem=kreska pseudotaktowa	!
.	.	8dd\	.
!	!	!LO:LB:g=original	!
=40-	=40-	=40-	=40-
!LO:TX:t=P:problem=kreska pseudotaktowa	!	!	!
1D	16D\LL	2r	.
.	16Eny\	.	.
.	16F\	.	.
.	16G\	.	.
.	16A\	.	.
.	16B-\J	.	.
.	8A\J	.	.
.	4D/	16dd\LL	.
.	.	16eeny\	.
!	!	!LO:TX:a:t=P:problem=# above	!
.	.	16ff#X\	.
.	.	16gg\	.
!	!LO:TX:t=P:problem=kreska pseudotaktowa	!	!
.	4DD/	16aa\	.
!	!	!LO:SIC:s=16bb-J	!
.	.	16bb-\JJ	.
!	!	!LO:SIC:s=8aaJ	!
!	!	!LO:TX:t=P:problem=kreska pseudotaktowa	!
.	.	8aa\	.
*	*custos:GG	*	*
!	!LO:LB:g=original	!	!
=41-	=41-	=41-	=41-
0GG	2GG/	8gg\L	.
.	.	8dd\	.
.	.	8dd\	.
.	.	8dd\J	.
.	2r	8g/L	.
.	.	16a/L	.
.	.	16b-/	.
.	.	16cc/	.
.	.	16dd/	.
.	.	16ee/	.
!	!	!LO:TX:t=P:problem=kreska pseudotaktowa	!
!	!	!LO:TX:t=P:problem=# below	!
.	.	16ff#X/JJ	.
!LO:MO:mod=*null:null	!	!	!
*clefC4	*	*	*
*custos:d	*	*	*
!LO:LB:g=original	!	!	!
=42-	=42-	=42-	=42-
.	8r	2.gg\	.
.	8G\L	.	.
.	8G\	.	.
.	8G\J	.	.
!	!LO:TX:t=P:problem=mixed beam	!	!
.	8GG/L	.	.
.	16G\L	.	.
.	16F\	.	.
.	16G\	4gg\	.
.	16A\	.	.
.	16B-\	.	.
!	!LO:TX:t=P:problem=kreska pseudotaktowa	!	!
.	16c\JJ	.	.
!	!LO:MO:mod=*null:null	!	!
*	*clefC4	*	*
=43-	=43-	=43-	=43-
*2\right	*	*	*
2.d\	8d\L	8ffny\L	.
!	!LO:SIC:s=8B-	!	!
.	8B-\J	8dd\	.
!	!LO:SIC:s=8d	!	!
.	8d\L	8ff\	.
.	8B-\J	8dd\J	.
.	8d\L	8ff\L	.
.	16B-\L	16dd\L	.
.	16c\J	16ee\J	.
4e\	8d\	8ff\	.
!	!LO:TX:t=P:problem=kreska pseudotaktowa	!LO:TX:t=P:problem=kreska pseudotaktowa	!
.	8eny\J	8gg\J	.
=44-	=44-	=44-	=44-
!	!	!LO:TX:t=P:problem=mixed beam	!
2D/	8f\L	16aa\LL	.
.	.	16d/	.
.	8D/	16d/	.
.	.	16e/JJ	.
.	8D/	16f/LL	.
.	.	16d/	.
.	8D/J	16f/	.
.	.	16g/JJ	.
!	!	!LO:TX:t=P:problem=mixed beam	!
4D/	8d\L	16a/LL	.
.	.	16dd\	.
!	!LO:MO:mod=*null:null	!	!
*	*clefF4	*	*
.	8DD/	16dd\	.
.	.	16ee\JJ	.
*	*	*custos:ff	*
!LO:TX:t=P:problem=kreska pseudotaktowa	!	!LO:LB:g=original	!
4D/	8DD/	16ff#X\LL	.
.	.	16gg\	.
!	!LO:TX:t=P:problem=kreska pseudotaktowa	!	!
.	8DD/J	16aa\	.
!	!	!LO:TX:a:t=P:problem=# above	!
!	!	!LO:TX:t=P:problem=kreska pseudotaktowa	!
.	.	16ff#X\JJ	.
=45-	=45-	=45-	=45-
!	!LO:SIC:s=16GGLL	!	!
2.G/	16GG/	2gg\	.
*	*clefC4	*	*
!	!LO:SIC:s=16G	!	!
.	16G/LL	.	.
.	16G/	.	.
.	16A/JJ	.	.
!	!LO:LB:g=original	!	!
.	16B-\LL	.	.
.	16G\	.	.
.	16B-\	.	.
.	16c\JJ	.	.
.	16d\LL	2bb-\	.
.	16B-\	.	.
.	16B-\	.	.
.	16c\JJ	.	.
4G/	16d\LL	.	.
.	16B-\	.	.
.	16d\	.	.
!	!LO:TX:t=P:problem=kreska pseudotaktowa	!	!
.	16e\JJ	.	.
=46-	=46-	=46-	=46-
4F/	4.f\	4.aa\	.
4D/	.	.	.
.	8d\	8ffny\	.
4F/	8f\L	8aa\L	.
.	16g\L	16bb-\L	.
.	16f\JJ	16aa\JJ	.
!LO:TX:t=P:problem=kreska pseudotaktowa	!	!	!
4G/	8.e\LL	8.gg\L	.
!	!	!LO:TX:t=P:problem=kreska pseudotaktowa	!
.	16d\JJk	16ff\Jk	.
=47-	=47-	=47-	=47-
1A	4c#X\	4ee\	.
*	*2\right	*	*
.	2d\	4ff\	.
.	.	2ee\	.
.	4c#X\	.	.
=48-	=48-	=48-	=48-
2D/	4d\	1dd	.
.	4D/	.	.
4D/	4D/	.	.
!LO:TX:t=P:problem=kreska pseudotaktowa	!	!	!
4D/	4D/	.	.
=49-	=49-	=49-	=49-
4G/	2G/	8r	.
.	.	8dd\L	.
!LO:MO:mod=*null:null	!	!	!
*clefF4	*	*	*
4GG/	.	8dd\	.
.	.	8dd\J	.
*	*clefF4	*	*
4GG/	8r	4.gg\	.
.	8GG/L	.	.
4GG/	8GG/	.	.
!	!LO:TX:t=P:problem=kreska pseudotaktowa	!LO:TX:t=P:problem=kreska pseudotaktowa	!
.	8GG/J	8gg\	.
=50-	=50-	=50-	=50-
2.D/	8DD/L	8ff\L	.
.	8D/	16dd\L	.
.	.	16ee\JJ	.
.	8D/	8ff\L	.
!	!LO:TX:b:t=e:mod=	!	!
.	8E/J	8gg\J	.
*	*custos:F	*	*
!	!LO:LB:g=original	!	!
!	!LO:SIC:s=8FL	!LO:TX:t=P:problem=mixed beam	!
.	8F\	8aa\L	.
!	!LO:MO:mod=*null:null	!	!
*	*clefC4	*	*
!	!LO:SIC:s=16B-L	!	!
.	16B-X\LL	16d/L	.
.	16cny\J	16e/J	.
!LO:TX:t=P:problem=kreska pseudotaktowa	!	!	!
4E\	8d\	8f/	.
!	!LO:TX:t=P:problem=kreska pseudotaktowa	!LO:TX:t=P:problem=kreska pseudotaktowa	!
.	8e\J	8g/J	.
*custos:F	*	*	*
!LO:LB:g=original	!	!	!
=51-	=51-	=51-	=51-
!	!LO:TX:t=P:problem=mixed beam	!LO:TX:t=P:problem=mixed beam	!
4F\	8f\L	16a/LL	.
.	.	16dd\	.
.	8D/	16dd\	.
.	.	16ee\	.
4D/	8D/	16ff\	.
.	.	16dd\	.
.	8D/J	16ff\	.
.	.	16gg\JJ	.
*	*	*custos:aa	*
!	!	!LO:LB:g=original	!
!	!	!LO:TX:t=P:problem=kreska pseudotaktowa	!
4F\	16F/LL	2aa\	.
.	16A/	.	.
.	16A/	.	.
!	!LO:SIC:s=16B-	!	!
.	16B-/JJ	.	.
!	!LO:SIC:s=16c	!	!
4F\	16c\LL	.	.
.	16A\	.	.
.	16c\	.	.
!	!LO:TX:t=P:problem=kreska pseudotaktowa	!	!
.	16d\JJ	.	.
=52-	=52-	=52-	=52-
!LO:TX:t=P:problem=kreska pseudotaktowa	!	!	!
1E	8e\L	2r	.
.	16d\L	.	.
.	16c\	.	.
!	!LO:TX:a:t=P:problem=# above	!	!
!	!LO:N:acc=#	!	!
.	16Bn\	.	.
.	16A\	.	.
.	16G\	.	.
.	16F\JJ	.	.
!	!LO:MO:mod=*null:null	!	!
*	*clefF4	*	*
.	16E/LL	2gg\	.
.	16D/	.	.
.	16C/	.	.
!	!LO:TX:a:t=P:problem=# above	!	!
!	!LO:N:acc=#	!	!
.	16BBn/	.	.
.	16AA/	.	.
.	16GG/	.	.
.	16FF/	.	.
!	!LO:TX:t=P:problem=kreska pseudotaktowa	!	!
.	16EE/JJ	.	.
=53-	=53-	=53-	=53-
1D	2DD/	8gg\L	.
.	.	16aa\L	.
.	.	16bb-\JJ	.
.	.	8.aa\L	.
.	.	16gg\Jk	.
.	2r	8ff#X\L	.
!	!	!	!LO:MO:null:mod=f
.	.	16dd\L	.
!	!	!	!LO:DY:mod= :t=forte.
.	.	16ee\	f
!	!	!LO:TX:a:t=P:problem=# above	!
.	.	16ff#X\	.
.	.	16gg\	.
.	.	16aa\	.
!	!	!LO:TX:a:t=P:problem=# above	!
!	!	!LO:TX:t=P:problem=kreska pseudotaktowa	!
.	.	16ff#X\JJ	.
=54-	=54-	=54-	=54-
2GG/	2r	8gg\L	.
!	!	!	!LO:MO:null:mod=p
.	.	16dd\L	.
!	!	!	!LO:DY:mod= :t=piano.
.	.	16ee\	p
!	!	!LO:TX:a:t=P:problem=# above	!
.	.	16ff#X\	.
.	.	16gg\	.
.	.	16aa\	.
!	!	!LO:TX:a:t=P:problem=# above	!
.	.	16ff#X\JJ	.
!LO:TX:t=P:problem=kreska pseudotaktowa	!	!LO:TX:t=P:problem=kreska pseudotaktowa	!
2G\	4r	2gg\	.
!	!LO:TX:t=P:problem=kreska pseudotaktowa	!	!
.	4G\	.	.
*	*custos:G	*	*
!	!LO:LB:g=original	!	!
=55-	=55-	=55-	=55-
2G\	8G\L	0r	.
.	16A\L	.	.
.	16B-y\J	.	.
.	8.A\	.	.
.	16G\Jk	.	.
*2\left	*	*	*
2F#X\	8F#X\L	.	.
.	16D\L	.	.
.	16E\	.	.
!	!LO:TX:a:t=P:problem=# above	!	!
.	16F#X\	.	.
.	16G\	.	.
.	16A\	.	.
!	!LO:TX:a:t=P:problem=# above	!	!
!	!LO:TX:t=P:problem=kreska pseudotaktowa	!	!
.	16F#X\JJ	.	.
=56-	=56-	=56-	=56-
2G\	8G\L	.	.
.	16D\L	.	.
.	16E\	.	.
!	!LO:TX:a:t=P:problem=# above	!	!
.	16F#X\	.	.
.	16G\	.	.
.	16A\	.	.
!	!LO:TX:a:t=P:problem=# above	!	!
.	16F#X\JJ	.	.
!LO:TX:t=P:problem=kreska pseudotaktowa	!LO:TX:t=P:problem=kreska pseudotaktowa	!	!
2GG/	2G\	.	.
=57-	=57-	=57-	=57-
2.D/	2r	16aa\LL	.
.	.	16bb-\	.
.	.	16aa\	.
.	.	16bb-\	.
.	.	16aa\	.
.	.	16bb-\	.
.	.	16aa\	.
.	.	16gg\JJ	.
.	16D\LL	16ffny\LL	.
.	16E-X\	16gg\	.
.	16D\	16ff\	.
.	16E-\	16gg\	.
4C/	16D\	16ff\	.
.	16E-X\	16gg\	.
.	16D\	16ff\	.
!	!	!LO:TX:t=P:problem=kreska pseudotaktowa	!
!	!LO:TX:t=P:problem=kreska pseudotaktowa	!LO:TX:a:t=P:problem=♭ above	!
.	16C\JJ	16ee-X\JJ	.
*	*	*custos:dd	*
!	!	!LO:LB:g=original	!
=58-	=58-	=58-	=58-
2BB-/	16BB-y/LL	16dd\LL	.
!	!	!LO:TX:a:t=P:problem=♭ above	!
.	16C/	16ee-X\	.
.	16BB-/	16dd\	.
!	!	!LO:TX:a:t=P:problem=♭ above	!
.	16C/	16ee-X\	.
.	16BB-/	16dd\	.
!	!	!LO:TX:a:t=P:problem=♭ above	!
.	16C/	16ee-X\	.
.	16BB-/	16dd\	.
.	16AA/JJ	16cc\JJ	.
*	*custos:GG	*	*
!	!LO:PB:g=original	!	!
!LO:TX:t=P:problem=kreska pseudotaktowa	!	!	!
2GG/	16GG/LL	16b-\LL	.
.	16AA/	16cc\	.
.	16GG/	16b-\	.
.	16AA/	16cc\	.
.	16GG/	16b-\	.
.	16AA/	16cc\	.
.	16BB-/	16dd\	.
!	!LO:TX:t=P:problem=kreska pseudotaktowa	!LO:TX:t=P:problem=kreska pseudotaktowa	!
.	16C/JJ	16eeny\JJ	.
=59-	=59-	=59-	=59-
1D	16D\LL	16ff#X\LL	.
.	16Eny\	16gg\	.
!	!	!LO:TX:a:t=P:problem=# above	!
.	16D\	16ff#X\	.
.	16E\	16gg\	.
!	!	!LO:TX:a:t=P:problem=# above	!
.	16D\	16ff#X\	.
.	16E\	16gg\	.
!	!LO:SIC:v:s=16F#	!LO:TX:a:t=P:problem=# above	!
.	16Fny\	16ff#X\	.
.	16G\JJ	16eeny\JJ	.
!	!	!LO:TX:a:t=P:problem=# above	!
.	16A\LL	16ff#X\LL	.
.	16G\	16ee\	.
!	!LO:SIC:v:s=16F#	!	!
.	16F\	16dd\	.
.	16G\	16ee\	.
!	!	!LO:TX:a:t=P:problem=# above	!
.	16A\	16ff#X\	.
.	16B-\	16gg\	.
.	16c\	16aa\	.
!	!	!LO:TX:t=P:problem=kreska pseudotaktowa	!
!	!LO:TX:t=P:problem=kreska pseudotaktowa	!	!
.	16A\JJ	16ff#X\JJ	.
=60-	=60-	=60-	=60-
2GG/	16B-\LL	16gg\LL	.
.	16c\	16aa\	.
.	16B-\	16gg\	.
.	16c\	16aa\	.
.	16B-\	16gg\	.
.	16c\	16aa\	.
.	16d\	16bb-\	.
.	16c\JJ	16aa\JJ	.
!LO:TX:t=P:problem=kreska pseudotaktowa	!	!	!
2G\	8B-\L	8gg\L	.
.	8A\	8ffny\	.
.	8G\	8ee\	.
!	!LO:TX:t=P:problem=kreska pseudotaktowa	!LO:TX:t=P:problem=kreska pseudotaktowa	!
.	8F\J	8dd\J	.
*	*	*custos:cc	*
!	!	!LO:PB:g=original	!
=61-	=61-	=61-	=61-
1A	16E\LL	16cc#X\LL	.
.	16F\	16dd\	.
.	16G\	16ee\	.
.	16F\JJ	16dd\JJ	.
.	8.G\L	8.ee\L	.
.	16F\Jk	16dd\Jk	.
.	8E\L	8cc#X\L	.
!	!LO:SIC:s=8D	!	!
.	8D\J	8dd\	.
!	!LO:SIC:s=8A	!	!
!	!LO:TX:t=P:problem=mixed beam	!	!
.	8A\L	8.ee\	.
!	!LO:TX:t=P:problem=kreska pseudotaktowa	!	!
.	8AA/J	.	.
.	.	16ff\Jk	.
=62-	=62-	=62-	=62-
!	!LO:SIC:s=8DL	!	!
2D/	8D/	1dd	.
!	!LO:LB:g=original	!	!
!	!LO:MO:mod=*null:null	!	!
*	*clefC4	*	*
!	!LO:SIC:s=8d	!	!
.	8d\L	.	.
.	8d\	.	.
.	8d\J	.	.
!	!LO:TX:t=P:problem=mixed beam	!	!
4D/	8f\L	.	.
.	8D/	.	.
!LO:TX:t=P:problem=kreska pseudotaktowa	!	!	!
4D/	8D/	.	.
!	!LO:TX:t=P:problem=kreska pseudotaktowa	!	!
.	8D/J	.	.
*custos:F	*	*	*
!LO:LB:g=original	!	!	!
=63-	=63-	=63-	=63-
2Fny\	8F/L	1r	.
.	8A/	.	.
.	8A/	.	.
.	8A/J	.	.
2E\	8e\L	.	.
.	16A\L	.	.
!	!LO:TX:a:t=P:problem=# above	!	!
!	!LO:N:acc=#	!	!
.	16Bny\JJ	.	.
!	!LO:TX:a:t=P:problem=# above	!	!
.	16c#X\LL	.	.
.	16d\	.	.
.	16e\	.	.
!	!LO:TX:a:t=P:problem=# above	!	!
!	!LO:TX:t=P:problem=kreska pseudotaktowa	!	!
.	16c#X\JJ	.	.
=64-	=64-	=64-	=64-
*	*2\left	*	*
2D/	2d\	8r	.
.	.	8dd\L	.
.	.	8dd\	.
.	.	8dd\J	.
!LO:TX:t=P:problem=kreska pseudotaktowa	!	!	!
2D/	2D/	8ff\L	.
.	.	8d/	.
.	.	8d/	.
!	!	!LO:TX:t=P:problem=kreska pseudotaktowa	!
.	.	8d/J	.
=65-	=65-	=65-	=65-
2D/	1r	8f/L	.
.	.	8a/	.
.	.	8a/	.
.	.	8a/J	.
!	!	!LO:TX:t=P:problem=mixed beam	!
2C/	.	8ee\L	.
.	.	16a/L	.
.	.	16b-/JJ	.
.	.	16ccny\LL	.
.	.	16dd\	.
.	.	16ee\	.
.	.	16cc\JJ	.
=66-	=66-	=66-	=66-
!LO:TX:t=P:problem=kreska pseudotaktowa	!	!	!
1BB-	8r	2dd\	.
.	8B-y\L	.	.
.	8B-\	.	.
.	8B-\J	.	.
.	16d\LL	8r	.
.	16B-\	.	.
.	16d\	8dd\L	.
.	16B-\JJ	.	.
.	8d\L	8dd\	.
!	!LO:TX:t=P:problem=kreska pseudotaktowa	!LO:TX:t=P:problem=kreska pseudotaktowa	!
.	8B-\J	8dd\J	.
=67-	=67-	=67-	=67-
2AA/	8r	16cc\LL	.
.	.	16a\	.
.	8A/L	16cc\	.
.	.	16a\JJ	.
.	8A/	8cc\L	.
.	8A/J	8a\J	.
2AA/	16cny\LL	8r	.
.	16A\	.	.
!	!	!LO:LB:g=original	!
.	16c\	8cc\L	.
.	16A\JJ	.	.
.	8c\L	8cc\	.
!	!	!LO:TX:t=P:problem=kreska pseudotaktowa	!
.	8A\J	8cc\J	.
*	*custos:G	*	*
!	!LO:MO:mod=*null:null	!	!
*	*clefF4	*	*
!	!LO:LB:g=original	!	!
=68-	=68-	=68-	=68-
2GG/	8r	16b-/LL	.
.	.	16g/	.
.	8G\L	16b-/	.
.	.	16g/JJ	.
.	8G\	8b-/L	.
.	8G\J	8g/J	.
!LO:TX:t=P:problem=kreska pseudotaktowa	!	!	!
2FF#X/	16A\LL	8r	.
!	!LO:TX:a:t=P:problem=# above	!	!
.	16F#X\	.	.
.	16A\	8cc\L	.
!	!LO:TX:a:t=P:problem=# above	!	!
.	16F#X\JJ	.	.
.	8A\L	8cc\	.
!	!LO:TX:a:t=P:problem=# above	!LO:TX:t=P:problem=kreska pseudotaktowa	!
.	8F#X\J	8cc\J	.
=69-	=69-	=69-	=69-
1GG	8r	16b-/LL	.
.	.	16g/	.
.	8B-\L	16b-/	.
.	.	16g/JJ	.
.	8B-\	8b-/L	.
.	8B-\J	8g/J	.
.	16d\LL	8r	.
.	16B-\	.	.
.	16d\	8gg\L	.
.	16B-\JJ	.	.
.	8d\L	8gg\	.
!	!LO:TX:t=P:problem=kreska pseudotaktowa	!LO:TX:t=P:problem=kreska pseudotaktowa	!
.	8B-\J	8gg\J	.
=70-	=70-	=70-	=70-
2DD/	8r	16aa\LL	.
.	.	16ff\	.
.	8Fny\L	16aa\	.
.	.	16ff\JJ	.
.	8F\	8aa\L	.
.	8F\J	8ff\J	.
!LO:TX:t=P:problem=kreska pseudotaktowa	!	!	!
2D/	16A\LL	8r	.
.	16F\	.	.
.	16A\	8ff\L	.
.	16F\JJ	.	.
.	8A\L	8ff\	.
!	!LO:TX:t=P:problem=kreska pseudotaktowa	!LO:TX:t=P:problem=kreska pseudotaktowa	!
.	8F\J	8ff\J	.
=71-	=71-	=71-	=71-
1AA	8E\L	8cc#X\L	.
.	8c#X\	8ee\	.
.	8c#\	8ee\	.
.	8c#\J	8ee\J	.
!	!LO:TX:a:t=P:problem=# above	!	!
.	16c#X\LL	16ee\LL	.
!	!	!LO:TX:a:t=P:problem=# above	!
.	16A\	16cc#X\	.
!	!LO:TX:a:t=P:problem=# above	!	!
.	16c#X\	16ee\	.
!	!	!LO:TX:a:t=P:problem=# above	!
.	16A\JJ	16cc#X\JJ	.
!	!LO:TX:a:t=P:problem=# above	!	!
.	8c#X\L	8ee\L	.
!	!	!LO:TX:a:t=P:problem=# above	!
.	8A\J	8cc#X\J	.
*	*custos:d	*custos:dd	*
!	!LO:LB:g=original	!LO:LB:g=original	!
=72-	=72-	=72-	=72-
2D/	4d\	1dd	.
.	4D/	.	.
4D/	4D/	.	.
!LO:TX:t=P:problem=kreska pseudotaktowa	!LO:TX:t=P:problem=kreska pseudotaktowa, między nutą a kropką	!	!
!	!LO:MO:mod=[4D	!	!
4D/	4.D/	.	.
=73-	=73-	=73-	=73-
!	!LO:MO:null:mod=8DL]	!	!
2D/	.	1r	.
!	!LO:SIC:s=8F	!	!
.	8F\L	.	.
.	8G\	.	.
.	8A\J	.	.
!	!LO:MO:mod=*null:null	!	!
*	*clefC4	*	*
2BB-/	8B-X\L	.	.
.	8cny\	.	.
.	8d\	.	.
!	!LO:TX:t=P:problem=kreska pseudotaktowa	!	!
.	8e\J	.	.
*custos:F	*	*	*
!LO:LB:g=original	!	!	!
=74-	=74-	=74-	=74-
!LO:TX:t=P:problem=kreska pseudotaktowa	!	!	!
1F	2f\	8r	.
.	.	8ccny\L	.
.	.	8dd\	.
.	.	8ee\	.
.	2r	8ff\	.
.	.	8gg\	.
.	.	8aa\	.
!	!	!LO:TX:t=P:problem=kreska pseudotaktowa	!
.	.	8bb-\J	.
!	!LO:MO:mod=*null:null	!	!
*	*clefF4	*	*
=75-	=75-	=75-	=75-
1FFny	8r	2aa\	.
.	8F\L	.	.
.	8G\	.	.
.	8A\J	.	.
!	!LO:TX:t=P:problem=mixed beam	!	!
.	8B-\L	8r	.
.	8D/	8ff\L	.
.	8E-X/	8gg\	.
!	!LO:TX:t=P:problem=kreska pseudotaktowa	!	!
.	8E-/J	8aa\J	.
=76-	=76-	=76-	=76-
2.BB-/	2BB-/	8bb-\L	.
.	.	8cc\	.
.	.	8dd\	.
.	.	8ee\J	.
!	!	!LO:TX:t=P:problem=kreska pseudotaktowa	!
.	8r	2ff\	.
.	8D\L	.	.
!LO:TX:t=P:problem=kreska pseudotaktowa	!	!	!
4AA/	8Eny\	.	.
!	!LO:TX:t=P:problem=kreska pseudotaktowa	!	!
.	8F\J	.	.
=77-	=77-	=77-	=77-
1.GG	2G\	8r	.
!	!	!LO:SIC:s=8g	!
.	.	8g/L	.
!	!	!LO:SIC:s=16b-LL	!
.	.	16b-/L	.
.	.	16a/	.
.	.	16b-/	.
.	.	16cc/JJ	.
!	!	!LO:TX:t=P:problem=kreska pseudotaktowa	!
.	8r	2dd\	.
.	8D\	.	.
.	16E\LL	.	.
.	16D\	.	.
.	16E\	.	.
!	!LO:TX:t=P:problem=kreska pseudotaktowa	!	!
.	16F\JJ	.	.
*	*custos:G	*	*
!	!LO:LB:g=original	!	!
=78-	=78-	=78-	=78-
.	8G\L	8r	.
.	8A\J	8cc\	.
.	16B-\LL	16dd\LL	.
.	16A\	16cc\	.
.	16B-\	16dd\	.
.	16c\JJ	16ee\JJ	.
!LO:TX:t=P:problem=kreska pseudotaktowa	!	!	!
2D/	8d\L	8ff#X\L	.
.	8B-\	8dd\	.
.	8c\	8ee\	.
!	!	!LO:TX:a:t=P:problem=# above	!
!	!LO:TX:t=P:problem=kreska pseudotaktowa	!LO:TX:t=P:problem=kreska pseudotaktowa	!
.	8d\J	8ff#X\J	.
*	*	*custos:gg	*
!	!	!LO:LB:g=original	!
=79-	=79-	=79-	=79-
!	!	!LO:TX:t=P:problem=mixed beam	!
1GG	2G\	8gg\L	.
.	.	8g/J	.
.	.	16b-/LL	.
.	.	16a/	.
.	.	16b-/	.
.	.	16cc/JJ	.
.	8r	8dd\L	.
.	8AA/	8cc\J	.
.	16BB-/LL	16dd\LL	.
.	16AA/	16cc\	.
.	16BB-/	16dd\	.
!	!LO:TX:t=P:problem=kreska pseudotaktowa	!LO:TX:t=P:problem=kreska pseudotaktowa	!
.	16C/JJ	16ee\JJ	.
=80-	=80-	=80-	=80-
!LO:TX:t=P:problem=kreska pseudotaktowa	!	!	!
1D	8D/L	8.ff#X\L	.
.	16C/L	.	.
.	16BB-/	16dd\Jk	.
!	!	!LO:TX:a:t=P:problem=# above	!
.	16AA/	8.ff#X\L	.
.	16GG/	.	.
.	16FF/	.	.
.	16EE/JJ	16gg\Jk	.
.	2DD/	8.aa\L	.
.	.	16bb-\Jk	.
.	.	8.aa\L	.
!	!	!LO:TX:t=P:problem=kreska pseudotaktowa	!
.	.	16gg\Jk	.
=81-	=81-	=81-	=81-
1GG	1GG	2gg\	.
.	.	4r	.
.	.	4dd\	.
=82-	=82-	=82-	=82-
2G\	4r	4dd\	.
.	4G\	4dd\	.
4G\	4G\	16d/LL	.
.	.	16g/	.
.	.	16b-/	.
.	.	16dd/JJ	.
!LO:TX:t=P:problem=kreska pseudotaktowa	!LO:TX:t=P:problem=kreska pseudotaktowa	!LO:TX:t=P:problem=mixed beam	!
4G\	4G\	16d/LL	.
.	.	16dd\	.
.	.	16ee\	.
!	!	!LO:TX:t=P:problem=kreska pseudotaktowa	!
.	.	16ff#X\JJ	.
*	*	*custos:gg	*
!	!	!LO:LB:g=original	!
=83-	=83-	=83-	=83-
!	!LO:TX:t=P:problem=mixed beam	!	!
2G\	16G\LL	4gg\	.
.	16GG/	.	.
.	16BB-/	.	.
.	16D/JJ	.	.
!	!LO:TX:t=P:problem=mixed beam	!	!
.	16GG/LL	4r	.
.	16G\	.	.
.	16F\	.	.
.	16E\JJ	.	.
*	*custos:D	*	*
!	!LO:LB:g=original	!	!
!	!LO:TX:t=P:problem=mixed beam	!LO:TX:t=P:problem=mixed beam	!
2D/	8D\L	16dd\LL	.
.	.	16a/	.
.	8DD/J	16f/	.
.	.	16d/JJ	.
.	8D\L	16dd\LL	.
!	!	!LO:SIC:s=16ccJ	!
.	.	16cc\JJ	.
!	!	!LO:SIC:s=8b-J	!
!	!LO:TX:t=P:problem=kreska pseudotaktowa	!LO:TX:t=P:problem=kreska pseudotaktowa	!
.	8E\J	8b-/	.
=84-	=84-	=84-	=84-
*2\right	*	*	*
2.F\	8F\L	8a/L	.
.	8D\	8f/	.
.	8F\	8a/	.
.	8G\J	8b-/J	.
!	!LO:TX:t=P:problem=mixed beam	!	!
.	8A\L	8.cc\L	.
.	16AA/L	.	.
.	16GG/JJ	16b-\Jk	.
!LO:TX:t=P:problem=kreska pseudotaktowa	!	!LO:TX:t=P:problem=mixed beam	!
4E\	8.FF/L	8a\L	.
.	.	16aa\L	.
!	!LO:TX:t=P:problem=kreska pseudotaktowa	!LO:TX:t=P:problem=kreska pseudotaktowa	!
.	16EE/Jk	16gg\JJ	.
=85-	=85-	=85-	=85-
!	!LO:TX:t=P:problem=mixed beam	!	!
2D/	8DD/L	8.ffny\L	.
.	8D\	.	.
.	.	16ee\Jk	.
.	8D\	16dd\LL	.
.	.	16ee\	.
.	8D\J	16ff\	.
.	.	16dd\JJ	.
!	!LO:TX:t=P:problem=mixed beam	!	!
2C#X/	8A\L	8ee\L	.
!	!LO:MO:mod=[8AAJ	!LO:TX:a:t=P:problem=# above	!
.	8.AA/	8cc#X\	.
!	!LO:MO:null:mod=16AALL]	!	!
.	.	8ee\	.
!	!LO:TX:a:t=P:problem=# above	!	!
!	!LO:N:acc=#	!	!
!	!LO:SIC:s=16BB	!	!
.	16BBn/L	.	.
!	!LO:TX:a:t=P:problem=# above	!LO:TX:t=P:problem=kreska pseudotaktowa	!
.	16C#X/	8ee\J	.
!	!LO:TX:t=P:problem=kreska pseudotaktowa	!	!
.	16AA/JJ	.	.
*custos:D	*	*	*
!LO:LB:g=original	!	!	!
=86-	=86-	=86-	=86-
!LO:TX:t=P:problem=kreska pseudotaktowa	!LO:TX:t=P:problem=mixed beam	!	!
1D	8D\L	8ff\L	.
!	!	!LO:MO:mod=[8ddJ	!
.	8DD/	8.dd\	.
!	!	!LO:MO:null:mod=16ddLL]	!
.	8DD/	.	.
!	!	!LO:SIC:s=16ee	!
.	.	16ee\L	.
.	8DD/J	16ff\	.
.	.	16gg\JJ	.
.	8AA/L	8aa\L	.
!	!LO:MO:mod=[8DJ	!	!
.	8.D/J	8a/	.
!	!LO:MO:null:mod=16DLL]	!	!
.	.	8a/	.
!	!LO:SIC:s=16E	!	!
.	16E\LL	.	.
!	!	!LO:TX:t=P:problem=kreska pseudotaktowa	!
.	16F\	8a/J	.
!	!LO:TX:t=P:problem=kreska pseudotaktowa	!	!
.	16D\JJ	.	.
*	*	*custos:cc	*
!	!	!LO:LB:g=original	!
=87-	=87-	=87-	=87-
2AA/	8A\L	8ccny\L	.
.	8AA/	16a\L	.
.	.	16b-\JJ	.
.	8AA/	16cc\LL	.
.	.	16dd\	.
.	8AA/J	16ee\	.
.	.	16cc\JJ	.
*	*custos:E	*	*
!	!LO:MO:mod=*null:null	!	!
*	*clefC4	*	*
!	!LO:LB:g=original	!	!
2AA/	8E/L	8ee\L	.
!	!LO:MO:mod=[8AJ	!	!
.	8.A/J	16cc\L	.
.	.	16dd\JJ	.
!	!LO:MO:null:mod=16ALL]	!	!
.	.	8ee\L	.
!	!LO:SIC:s=16B-	!	!
.	16B-\LL	.	.
!	!	!LO:TX:t=P:problem=kreska pseudotaktowa	!
.	16c\	8cc\J	.
!	!LO:TX:t=P:problem=kreska pseudotaktowa	!	!
.	16A\JJ	.	.
!	!LO:MO:mod=*null:null	!	!
*	*clefF4	*	*
=88-	=88-	=88-	=88-
!	!LO:TX:t=P:problem=mixed beam	!	!
2.BB-/	8d\L	8dd\L	.
!	!LO:MO:mod=[8DJ	!LO:MO:mod=[8ffJ	!
.	8.D/J	8.ff\	.
!	!LO:MO:null:mod=16DLL]	!LO:MO:null:mod=16ffLL]	!
.	.	.	.
!	!	!LO:SIC:s=16ee-	!
!	!LO:SIC:s=16C	!LO:TX:a:t=P:problem=♭ above	!
.	16Cny/LL	16ee-X\L	.
.	16BB-y/	16dd\	.
.	16AA/JJ	16cc\JJ	.
!	!LO:TX:t=P:problem=mixed beam	!	!
.	8BB-/L	8dd\L	.
.	16d\L	8d/	.
.	16c\JJ	.	.
!LO:TX:t=P:problem=kreska pseudotaktowa	!	!	!
4AA/	8.B-\L	8d/	.
!	!	!LO:TX:t=P:problem=kreska pseudotaktowa	!
.	.	8d/J	.
!	!LO:TX:t=P:problem=kreska pseudotaktowa	!	!
.	16A\Jk	.	.
=89-	=89-	=89-	=89-
!	!LO:TX:t=P:problem=mixed beam	!	!
1.GG	8G\L	8g/L	.
!	!LO:MO:mod=[8GGJ	!	!
.	8.GG/J	8b-/	.
!	!LO:MO:null:mod=16GGLL]	!	!
.	.	8b-/	.
!	!LO:SIC:s=16AA	!	!
.	16AA/LL	.	.
.	16BB-/	8b-/J	.
.	16GG/JJ	.	.
.	8D\L	8dd\L	.
!	!	!LO:MO:mod=[8b-J	!
.	8G\	8.b-\	.
!	!	!LO:MO:null:mod=16b-LL]	!
.	8G\	.	.
!	!	!LO:SIC:s=16cc	!
.	.	16cc\L	.
!	!LO:TX:t=P:problem=kreska pseudotaktowa	!	!
.	8G\J	16dd\	.
!	!	!LO:TX:a:t=P:problem=♭ above	!
!	!	!LO:TX:t=P:problem=kreska pseudotaktowa	!
.	.	16ee-X\JJ	.
=90-	=90-	=90-	=90-
.	8B-\L	8dd\L	.
!	!LO:MO:mod=[8GJ	!	!
.	8.G\J	8bb-\	.
!	!LO:MO:null:mod=16GLL]	!	!
.	.	8bb-\	.
!	!LO:SIC:s=16A	!	!
.	16A\LL	.	.
.	16B-\	8bb-\J	.
.	16G\JJ	.	.
!LO:TX:t=P:problem=kreska pseudotaktowa	!LO:TX:t=P:problem=mixed beam	!	!
2D/	8d\L	8aa\L	.
!	!	!LO:MO:mod=[8ff#J	!
.	8D/	8.ff#X\J	.
!	!	!LO:MO:null:mod=16ff#LL]	!
.	8D/	.	.
!	!	!LO:SIC:s=16gg	!
.	.	16gg\LL	.
!	!LO:TX:t=P:problem=kreska pseudotaktowa	!	!
.	8D/J	16aa\	.
!	!	!LO:TX:a:t=P:problem=# above	!
!	!	!LO:TX:t=P:problem=kreska pseudotaktowa	!
.	.	16ff#X\JJ	.
*	*custos:G	*custos:gg	*
!	!LO:LB:g=original	!LO:LB:g=original	!
=91-	=91-	=91-	=91-
!	!LO:TX:t=P:problem=mixed beam	!LO:TX:t=P:problem=mixed beam	!
1GG	8G\L	8gg\L	.
!	!LO:MO:mod=[8GGJ	!	!
.	8.GG/J	8b-/	.
!	!LO:MO:null:mod=16GGLL]	!	!
.	.	8b-/	.
!	!LO:SIC:s=16AA	!	!
.	16AA/LL	.	.
.	16BB-/	8b-/J	.
.	16GG/JJ	.	.
.	8G\L	8dd\L	.
!	!	!LO:MO:mod=[8b-J	!
.	8A\	8.b-\	.
!	!	!LO:MO:null:mod=16b-LL]	!
.	8B-\	.	.
!	!	!LO:SIC:s=16cc	!
.	.	16cc\L	.
!	!LO:TX:t=P:problem=kreska pseudotaktowa	!	!
.	8c\J	16dd\	.
.	.	16eeny\JJ	.
=92-	=92-	=92-	=92-
1D	2d\	2ff#X\	.
.	4c\	2gg\	.
.	4B-\	.	.
=93-	=93-	=93-	=93-
!LO:MO:mod=[1D	!	!	!
[00Dl/	4A\	2.aa\	.
.	4G\	.	.
.	4F\	.	.
.	4E\	4gg\	.
=94-	=94-	=94-	=94-
!LO:MO:null:mod=1D_	!	!	!
.	4D/	4ffny\	.
.	4C/	4ee\	.
.	4BB-/	4dd\	.
.	4AA/	4cc\	.
!	!LO:MO:mod=*null:null	!	!
*	*clefF5	*	*
=95-	=95-	=95-	=95-
!LO:MO:null:mod=1D_	!	!	!
.	2GG/	4b-/	.
.	.	4dd\	.
.	4FF/	4dd\	.
.	4EE/	4ee\	.
=96-	=96-	=96-	=96-
*	*	*2\right	*
!LO:MO:null:mod=1D_	!	!	!
.	2DD/	2ff#X\	.
.	2CC/	1gg\	.
=97-	=97-	=97-	=97-
1D]	1DD	.	.
.	.	2ff#X\	.
=98-	=98-	=98-	=98-
!LO:SIC:s=0GG;	!LO:SIC:s=0GG;	!LO:SIC:s=0gg;	!
0GGl;;	0GGl;;	0ggl;;	.
!	!	!LO:TX:b:t=Seqúit[ur] Secúnda Par[s]:mod=	!
==	==	==	==
*-	*-	*-	*-
!!!system-decoration: [(s1,s2)]<s3>
!!LO:MO:ori
!!!RDF**kern: l = terminal long
!!LO:MO:end
!!!ENC: Anastazja Marusiak
!!!END: 2022-10-31
!!!ENC: Natalia Wrzos
!!!END: 2022-11-11
!!!EED: Andrzej Kubiczek
!!!EST: revision finished 2022-11-30
!!!ENC-modern: Andrzej Kubiczek
!!!END-modern: 2022-12-01
!!!filter-modern: shed -k -e "s/[ny]/$1/g; s/#X/#/g; s/-X/-/g" | shed -e "s/LO:N:/LO:n:$1/L" | shed -e "s/(LO:DY.*):t=(.*$)/$1:T=$2/L" | shed -e "s/^custos:/Xcustos:/I" | shed -e "s/^(\d+[\/\\]right)/$1yy/I; s/^(\d+[\/\\]left)/$1yy/I" | shed -e "s/TX(.*):t=P:/tx$1:t=P:/LG" | sic -sq | modori -m  | autostem -r | tie -s | shed -e "s/-//B"
!!!YEC: Copyright 2022 Narodowy Instytut Fryderyka Chopina (https://polishscores.org)
!!!YEM: License CC-BY-4.0 (https://creativecommons.org/licenses/by/4.0)
